X:1
T:Title
%%score { 1 | 2 }
L:1/8
Q:1/4=90
M:6/8
K:G
V:1 treble nm="Grand Piano"
V:2 treble 
V:1
 BBB d2 G | [FA]2 [FA] [GB]2 [DG] | [FA]2 [GB] [Gc]2 [Gd] | [Ge]2 [Fd] [FA]3 | BBB d2 G | %5
w: Harry~Sanders * * * *|||||
 [DFA]2 [DGB] [EGc]3 | [EG^c][EGc][EGc] [DFd]2 e | d2 [G^c] [Fd]3 |[M:1/8] D | %9
w: ||||
[M:3/4] F2 [EG] [FA]2 [Ac] | B2 A G2 B | [FA]2 [GB] [Ac]2 [Gd] | [Fe]2 [Fd] [FA]3 | %13
w: ||||
 [DG]2 [DG] [FA]2 [GB] | [FA]2 [B,G] [EGc]3 | EE E D2 G | A2 B [B,DG]3 |] %17
w: ||||
V:2
 [G,DG][G,DG][G,DG] [G,B,G]2 [G,B,D] | [D,D]2 [D,D] [G,D]2 [G,B,] | [D,D]2 [G,D] [E,C]2 [D,B,] | %3
 [C,C]2 [D,A,] [D,D]3 | [G,DG][G,DG][G,DG] [G,B,G]2 [G,B,] | D,2 G, C,3 | %6
 A,,A,,A,, D,2[K:treble] [G,B,G] | [A,F]2[K:bass] [A,,A,] [D,A,]3 |[M:1/8] D, | %9
[M:3/4] [D,D]2 [D,D] [D,D]2 [D,D] | [G,DG]2 [G,CG] [G,B,]2 [G,DG] | [D,D]2 [D,D] [D,D]2 [D,B,] | %12
 [D,C]2 [D,A,] [D,D]3 | [G,B,]2 [G,B,] [D,D]2 [D,D] | [D,D]2 E, C,3 | %15
 [C,G,C][C,G,C] [C,G,C] [D,G,B,]2 [D,B,D] | [D,CD]2 [D,D] G,,3 |] %17

